icons/shield-plus.svg

<svg xmlns="http://www.w3.org/2000/svg" width="24" height="24" viewBox="0 0 24 24">
  <path d="M12,1 C15.3333333,1 18.3333333,2 21,4 L21,13 C20.9981811,16.3304863 19.073592,19.5406076 16.0275,21.031 L12,23 L7.9725,21.031 C4.926408,19.5406076 3.00181891,16.3304863 3,13 L3,4 C5.66666667,2 8.66666667,1 12,1 Z M12,8 C11.4477153,8 11,8.44771525 11,9 L11,9 L10.999,11 L9,11 L8.88337887,11.0067277 C8.38604019,11.0644928 8,11.4871642 8,12 C8,12.5522847 8.44771525,13 9,13 L9,13 L10.999,13 L11,15 L11.0067277,15.1166211 C11.0644928,15.6139598 11.4871642,16 12,16 C12.5522847,16 13,15.5522847 13,15 L13,15 L12.999,13 L15,13 L15.1166211,12.9932723 C15.6139598,12.9355072 16,12.5128358 16,12 C16,11.4477153 15.5522847,11 15,11 L15,11 L12.999,11 L13,9 L12.9932723,8.88337887 C12.9355072,8.38604019 12.5128358,8 12,8 Z"/>
</svg>

<svg xmlns="http://www.w3.org/2000/svg" viewBox="0 0 24 24">
  <path d="M12 1c3.33 0 6.33 1 9 3v9a9.03 9.03 0 0 1-4.97 8.03L12 23l-4.03-1.97A9.03 9.03 0 0 1 3 13V4c2.67-2 5.67-3 9-3zm0 7a1 1 0 0 0-1 1v2H8.88A1 1 0 0 0 9 13h2v2.12a1 1 0 0 0 2-.12v-2h2.12a1 1 0 0 0-.12-2h-2V8.88A1 1 0 0 0 12 8z"/>
</svg>
